outputs/icons/communication/qr_code_round.svg

<svg xmlns="http://www.w3.org/2000/svg" width="1200" height="1200" fill="none"><g clip-path="url(#a)"><path fill="#000" d="M475 325v150H325V325zm75-75H250v300h300zm-75 475v150H325V725zm75-75H250v300h300zm325-325v150H725V325zm75-75H650v300h300zM650 650h75v75h-75zm75 75h75v75h-75zm75-75h75v75h-75zM650 800h75v75h-75zm75 75h75v75h-75zm75-75h75v75h-75zm75-75h75v75h-75zm0 150h75v75h-75zm175-525c-27.5 0-50-22.5-50-50V200H900c-27.5 0-50-22.5-50-50s22.5-50 50-50h150c27.5 0 50 22.5 50 50v150c0 27.5-22.5 50-50 50m50 700V900c0-27.5-22.5-50-50-50s-50 22.5-50 50v100H900c-27.5 0-50 22.5-50 50s22.5 50 50 50h150c27.5 0 50-22.5 50-50m-950 50h150c27.5 0 50-22.5 50-50s-22.5-50-50-50H200V900c0-27.5-22.5-50-50-50s-50 22.5-50 50v150c0 27.5 22.5 50 50 50m-50-950v150c0 27.5 22.5 50 50 50s50-22.5 50-50V200h100c27.5 0 50-22.5 50-50s-22.5-50-50-50H150c-27.5 0-50 22.5-50 50"/></g><defs><clipPath id="a"><path fill="#fff" d="M0 0h1200v1200H0z"/></clipPath></defs></svg>

<svg width="1200" height="1200" viewBox="0 0 1200 1200" fill="none" xmlns="http://www.w3.org/2000/svg"><g clip-path="url(#clip0_225_2423)"><path d="M475 325V475H325V325H475ZM550 250H250V550H550V250ZM475 725V875H325V725H475ZM550 650H250V950H550V650ZM875 325V475H725V325H875ZM950 250H650V550H950V250ZM650 650H725V725H650V650ZM725 725H800V800H725V725ZM800 650H875V725H800V650ZM650 800H725V875H650V800ZM725 875H800V950H725V875ZM800 800H875V875H800V800ZM875 725H950V800H875V725ZM875 875H950V950H875V875ZM1050 350C1022.5 350 1000 327.5 1000 300V200H900C872.5 200 850 177.5 850 150C850 122.5 872.5 100 900 100H1050C1077.5 100 1100 122.5 1100 150V300C1100 327.5 1077.5 350 1050 350ZM1100 1050V900C1100 872.5 1077.5 850 1050 850C1022.5 850 1000 872.5 1000 900V1000H900C872.5 1000 850 1022.5 850 1050C850 1077.5 872.5 1100 900 1100H1050C1077.5 1100 1100 1077.5 1100 1050ZM150 1100H300C327.5 1100 350 1077.5 350 1050C350 1022.5 327.5 1000 300 1000H200V900C200 872.5 177.5 850 150 850C122.5 850 100 872.5 100 900V1050C100 1077.5 122.5 1100 150 1100ZM100 150V300C100 327.5 122.5 350 150 350C177.5 350 200 327.5 200 300V200H300C327.5 200 350 177.5 350 150C350 122.5 327.5 100 300 100H150C122.5 100 100 122.5 100 150Z" fill="black"/></g><defs><clipPath id="clip0_225_2423"><path width="24" fill="white" d="M0 0H1200V1200H0V0z"/></clipPath></defs></svg>
